!!!COM:      Bach, Johann Sebastian
!!!CDT:      1685/03/31/-1750/07/28/
!!!OPR@@GER: Das wohltemperirte Clavier
!!!OVM@@GER: Band II
!!!OPR@ENG:  Well-Tempered Clavier
!!!OVM@ENG:  Book II
!!!OTL:      Prelude
!!!OKY:      C minor
!!!ONM:      no. 2
!!!SCT:      BWV 871
!!!OMV:      1
**kern	**kern	**kern	**kern
*>[A,A,B,B]	*>[A,A,B,B]	*>[A,A,B,B]	*>[A,A,B,B]
*>norep[A,B]	*>norep[A,B]	*>norep[A,B]	*>norep[A,B]
*>A	*>A	*>A	*>A
*clefF4	*	*	*clefG2
*k[b-e-a-]	*	*	*k[b-e-a-]
*c:	*	*	*c:
*M4/4	*	*	*M4/4
*met(c)	*	*	*met(c)
*MM70	*MM70	*MM70	*MM70
=1-	=1-	=1-	=1-
8C	1ryy	1ryy	16r
.	.	.	16g
8c	.	.	16f
.	.	.	16g
8F	.	.	16a-
.	.	.	16f
8c	.	.	16e-
.	.	.	16f
8E-	.	.	16g
.	.	.	16e-
8c	.	.	16d
.	.	.	16e-
8D	.	.	16f
.	.	.	16d
8Bn	.	.	16c
.	.	.	16d
=2	=2	=2	=2
16C	1ryy	1ryy	8e-
16G	.	.	.
16F	.	.	8cc
16G	.	.	.
16A-	.	.	8f
16F	.	.	.
16E-	.	.	8cc
16F	.	.	.
16G	.	.	8e-
16E-	.	.	.
16D	.	.	8cc
16E-	.	.	.
16F	.	.	8d
16D	.	.	.
16C	.	.	8bn
16D	.	.	.
=3	=3	=3	=3
8E-	1ryy	1ryy	16c
.	.	.	16e-
8C	.	.	16g
.	.	.	16cc
8F	.	.	16d
.	.	.	16cc
8D	.	.	16bn
.	.	.	16an
8G	.	.	16d
.	.	.	16g
8F	.	.	16bn
.	.	.	16dd
8G	.	.	16e-
.	.	.	16dd
8E-	.	.	16cc
.	.	.	16bn
=4	=4	=4	=4
8A-	1ryy	1ryy	16e-
.	.	.	16a-
8G	.	.	16cc
.	.	.	16ee-
8An	.	.	16f
.	.	.	16ee-
8F	.	.	16dd
.	.	.	16cc
8B-	.	.	16f
.	.	.	16b-
8An	.	.	16dd
.	.	.	16ff
8Bn	.	.	16g
.	.	.	16ff
8G	.	.	16ee-
.	.	.	16dd
=5	=5	=5	=5
16c	1ryy	1ryy	16ee-
16a-	.	.	16cc
16g	.	.	16b-
16a-	.	.	16cc
16B-	.	.	16dd
16g	.	.	16b-
16f	.	.	16a-
16g	.	.	16b-
8A-	.	.	16cc
.	.	.	16b-
8r	.	.	16a-
.	.	.	16g
16r	.	.	16f
16e-	.	.	16r
16d	.	.	8r
16c	.	.	.
=6	=6	=6	=6
16B-	1ryy	1ryy	16dd
16g	.	.	16b-
16f	.	.	16a-
16g	.	.	16b-
16A-	.	.	16cc
16f	.	.	16a-
16e-	.	.	16g
16f	.	.	16a-
8G	.	.	16b-
.	.	.	16a-
8r	.	.	16g
.	.	.	16f
16r	.	.	16e-
16d-	.	.	16r
16c	.	.	8r
16B-	.	.	.
=7	=7	=7	=7
16A-	1ryy	1ryy	16cc
16f	.	.	16a-
16e-	.	.	16g
16f	.	.	16a-
16G	.	.	16b-
16e-	.	.	16g
16d	.	.	16f
16e-	.	.	16g
16F	.	.	16a-
16d	.	.	16f
16c	.	.	16e-
16d	.	.	16f
16E-	.	.	8a-M
16c	.	.	.
16B-	.	.	8a-
16c	.	.	.
=8	=8	=8	=8
16D	1ryy	1ryy	16a-
16B-	.	.	16g
16A-	.	.	16f
16B-	.	.	16g
16C	.	.	8a-M
16A-	.	.	.
16G	.	.	8a-
16A-	.	.	.
8BB-	.	.	16a-
.	.	.	16dd
8B-	.	.	16ff
.	.	.	16ee-
8r	.	.	16dd
.	.	.	16cc
8D	.	.	16b-
.	.	.	16a-
=9	=9	=9	=9
8E-	1ryy	1ryy	16g
.	.	.	16b-
8C	.	.	16ee-
.	.	.	16g
8AA-	.	.	16f
.	.	.	16ee-
8BB-	.	.	16f
.	.	.	16dd
8EE-	.	.	16ee-
.	.	.	16b-
8E-	.	.	16a-
.	.	.	16b-
8AA-	.	.	16cc
.	.	.	16a-
8E-	.	.	16g
.	.	.	16a-
=10	=10	=10	=10
8GG	1ryy	1ryy	16b-
.	.	.	16g
8E-	.	.	16f
.	.	.	16g
8FF	.	.	16a-
.	.	.	16f
8D	.	.	16e-
.	.	.	16f
16E-	.	.	16g
16G	.	.	16e-
16F	.	.	16d
16G	.	.	16e-
16A-	.	.	8c
16F	.	.	.
16E-	.	.	8a-
16F	.	.	.
=11	=11	=11	=11
16G	1ryy	1ryy	8B-
16E-	.	.	.
16D	.	.	8g
16E-	.	.	.
16F	.	.	8A-
16D	.	.	.
16C	.	.	8f
16D	.	.	.
8E-	.	.	16G
.	.	.	16B-
8G	.	.	16e-
.	.	.	[16g
8A-	.	.	16g]
.	.	.	16f
8B-	.	.	16e-
.	.	.	16d
=12	=12	=12	=12
*	*staff:7	*staff:8	*
*	*clefF4	*clefG2	*
*	*k[b-e-a-]	*k[b-e-a-]	*
8c	[4e-	8ryy	16e-
.	.	.	16g
8A-	.	16cc	8cc
.	.	16f	.
8B-	16e-]	8g	8b-
.	8e-	.	.
8BB-	.	8f	8a-
.	16d	.	.
16r	2B-	2e-	2g
16E-	.	.	.
16BB-	.	.	.
16GG	.	.	.
4EE-	.	.	.
=13:||:	=13:||:	=13:||:	=13:||:
*>B	*>B	*>B	*>B
8E-	1ryy	1ryy	16r
.	.	.	16b-
8F	.	.	16an
.	.	.	16b-
8G	.	.	16ee-
.	.	.	16b-
8E-	.	.	16a
.	.	.	16b-
8D	.	.	16ff
.	.	.	16b-
8C	.	.	16a
.	.	.	16b-
8D	.	.	16aa-
.	.	.	16b-
8BB-	.	.	16an
.	.	.	16b-
=14	=14	=14	=14
16E-	1ryy	1ryy	8gg
16G	.	.	.
16A-	.	.	8ee-
16G	.	.	.
16AA-	.	.	16ccT
16G	.	.	16bn
16A-	.	.	8cc
16G	.	.	.
16D	.	.	8ff
16F	.	.	.
16G	.	.	8dd
16F	.	.	.
16GG	.	.	16bnt
16F	.	.	16an
16G	.	.	8b
16F	.	.	.
=15	=15	=15	=15
8C	1ryy	1ryy	16ee-
.	.	.	16e-
8c	.	.	16d
.	.	.	16e-
8B-	.	.	16g
.	.	.	16e-
8A-	.	.	16d
.	.	.	16e-
8G	.	.	16b-
.	.	.	16e-
8F	.	.	16d
.	.	.	16e-
8G	.	.	16dd-
.	.	.	16e-
8E-	.	.	16dn
.	.	.	16e-
=16	=16	=16	=16
16A-	1ryy	1ryy	8cc
16c	.	.	.
16d-	.	.	8a-
16c	.	.	.
16D-X	.	.	16fT
16c	.	.	16en
16d-	.	.	8f
16c	.	.	.
16G	.	.	8b-
16B-	.	.	.
16c	.	.	8g
16B-	.	.	.
16C	.	.	16ent
16B-	.	.	16dn
16c	.	.	8e
16B-	.	.	.
=17	=17	=17	=17
8F	1ryy	1ryy	16a-
.	.	.	16cc
8A-	.	.	16bn
.	.	.	16cc
8F	.	.	16dd-
.	.	.	16cc
8d-	.	.	16bn
.	.	.	16cc
8En	.	.	16g
.	.	.	16cc
8G	.	.	16bn
.	.	.	16cc
8E-	.	.	16dd-X
.	.	.	16cc
8c	.	.	16bn
.	.	.	16cc
=18	=18	=18	=18
8Dn	1ryy	1ryy	16f
.	.	.	16cc
8F	.	.	16ddn
.	.	.	16een
8D-	.	.	16ff
.	.	.	16b-X
8B-	.	.	16an
.	.	.	16b-
8C	.	.	16gg
.	.	.	16ff
8Dn	.	.	16een
.	.	.	16dd
8En	.	.	16cc
.	.	.	16b-
8C	.	.	16a-
.	.	.	16g
=19	=19	=19	=19
16F	1ryy	1ryy	16a-
16A-	.	.	16f
16G	.	.	16en
16A-	.	.	16f
16E-X	.	.	16cc
16c	.	.	16a-
16B-	.	.	16g
16c	.	.	16a-
8D-	.	.	16ff
.	.	.	16ee-
8F	.	.	16dd-
.	.	.	16cc
8B-	.	.	16b-
.	.	.	16a-
8d-X	.	.	16g
.	.	.	16f
=20	=20	=20	=20
16E-	1ryy	1ryy	16g
16G	.	.	16e-
16F	.	.	16dn
16G	.	.	16e-
16D-	.	.	16b-
16B-	.	.	16g
16A-	.	.	16f
16B-	.	.	16g
8C	.	.	16ee-
.	.	.	16dd-
8E-	.	.	16cc
.	.	.	16b-
8A-	.	.	16a-
.	.	.	16g
8c	.	.	16f
.	.	.	16en
=21	=21	=21	=21
16D-	1ryy	1ryy	8f
16F	.	.	.
16E-	.	.	8an
16F	.	.	.
16G-	.	.	8b-
16F	.	.	.
16E-	.	.	8cc
16F	.	.	.
16BB-	.	.	8dd-
16F	.	.	.
16Gn	.	.	8een
16A-	.	.	.
16G	.	.	8ff
16F	.	.	.
16En	.	.	8gg
16F	.	.	.
=22	=22	=22	=22
8AA-	1ryy	1ryy	16cc
.	.	.	16een
8FF	.	.	16ff
.	.	.	16aa-
8C	.	.	16b-
.	.	.	16gg
8CC	.	.	16ff
.	.	.	16een
8FF	.	.	16a-
.	.	.	16cc
8AA-	.	.	16een
.	.	.	16ff
8BB-	.	.	16g
.	.	.	16dd-
8C	.	.	16cc
.	.	.	16b-
=23	=23	=23	=23
8F	1ryy	1ryy	16a-
.	.	.	16g
8G	.	.	16f
.	.	.	16en
8A-	.	.	16f
.	.	.	16a-
8F	.	.	16c
.	.	.	16e-
8B-	.	.	16d
.	.	.	16a-
8BB-	.	.	16f
.	.	.	16d
16r	.	.	16B-
16A-	.	.	16r
16G	.	.	8r
16F	.	.	.
=24	=24	=24	=24
8E-	1ryy	1ryy	16g
.	.	.	16f
8F	.	.	16e-
.	.	.	16d
8G	.	.	16e-
.	.	.	16g
8E-	.	.	16Bn
.	.	.	16d
8A-	.	.	16c
.	.	.	16g
8AA-	.	.	16e-
.	.	.	16c
16r	.	.	16A-
16G	.	.	16r
16F	.	.	8r
16E-	.	.	.
=25	=25	=25	=25
8D	1ryy	1ryy	16f
.	.	.	16e-
8E-	.	.	16d
.	.	.	16c
8F	.	.	16d
.	.	.	16f
8D	.	.	16a-
.	.	.	16c
8G	.	.	16Bn
.	.	.	16f
8GG	.	.	16d
.	.	.	16B
16r	.	.	16G
16F	.	.	16B
16E-	.	.	16c
16D	.	.	16d
=26	=26	=26	=26
16C	1ryy	1ryy	8r
16D	.	.	.
16E-	.	.	8g
16C	.	.	.
16AA-	.	.	[2cc
16G	.	.	.
16F	.	.	.
16E-	.	.	.
16D	.	.	.
16E-	.	.	.
16F	.	.	.
16D	.	.	.
16BB-	.	.	16cc]
16A-	.	.	16cc
16G	.	.	16b-
16F	.	.	16a-
=27	=27	=27	=27
8E-	1ryy	1ryy	16g
.	.	.	16a-
8D	.	.	16b-
.	.	.	16g
8E-	.	.	16c
.	.	.	16dd-
8En	.	.	16cc
.	.	.	16b-
8F	.	.	16a-
.	.	.	16b-
8En	.	.	16cc
.	.	.	16a-
8F	.	.	16dn
.	.	.	16ee-
8F#	.	.	16ddn
.	.	.	16cc
=28	=28	=28	=28
*	*staff:1	*staff:2	*
16G	4ryy	8ryy	16bn
16Fn	.	.	16g
16E-	.	[8cc	16cc
16F	.	.	16dd
8G	16r	8cc]	8ee-
.	8g	.	.
8GG	.	8b	8dd
.	16f	.	.
16CC	2e-	2g	2cc
16C	.	.	.
16E-	.	.	.
16G	.	.	.
4c	.	.	.
==:|	==:|	==:|	==:|
*-	*-	*-	*-
!!!AFR:  prelude
!!!EFL:  51/96
!!!END:  1994/01/30/
!!!VID:  539695385 Bach, BWV 871-02
!!!AST:  Baroque
!!!OCY:  Deutschland
!!!ODT:  1742///
!!!PDT:  1801///
!!!EED:  Walter Hewlett
!!!ENC:  Walter Hewlett
!!!YOR:  Bach Gesellschaft Edition xiv
!!!AFT:  enhanced SCORE
!!!RDT:  2011/10/07/ by Andreas Kornstaedt using massScr2hmd
!!!SCA1: Thematisch-systematisches Verzeichnis der musikalischen Werke 
!!!SCA2: Johann Sebastian Bach: Bach-Werke-Verzeichnis (Schmieder)
!!!YEC1: Copyright 1994, 2000 Center for Computer Assisted Research 
!!!YEC2: in the Humanities
!!!YEM1: Rights to all derivative editions reserved.
!!!YEM2: Refer to licensing agreement for further details.
!!!YEN:  United States of America
!!!ref:  @{OTL}, @{SCT}
!!muse2ps: T^@{OTL} @{ONM} in @{OKY}^C^J.S. Bach\n@{SCT}-@{OMV}^
!!muse2ps: u^@{OPR@ENG}, @{OVM@ENG}^j
